X:157 
T:Knotted Cord (reel), The 
B:CRE2.229 (Corda Snaidhmthe)
F:file ID: cre.2/157knot_c 
M:C
R:reel
Q:180
K:Am
A3B AGEG|ABcd ecdB|G3A GEDE|GABG dGBG|
A2AB AGEG|ABcd egdB|ABcd eaa^f|1 gedB BAGB:|\
[2 gedB BAA2||
|:eaag eaag|eaab aged|egg/^f/g egg2|egga ged^f|
ea (3bag eaag|eaab aged|cBcd e2a^f|1 gedB BAA2:|\
[2 gedB BAGB||

%%%

